src/assets/signals/price.svg

<svg width="28" height="30" viewBox="0 0 28 30" fill="none" xmlns="http://www.w3.org/2000/svg">
  <g clip-path="url(#clip0)">
    <path d="M0.341572 10.9363C1.83689 7.47017 7.68203 9.0912 11.8876 9.09123C16.0932 9.09126 20.1704 12.5692 20.6377 18.3462C21.105 24.1231 15.7618 26.3412 13.4254 27.304C11.0889 28.2669 7.35065 27.7855 4.54692 27.7855C1.7432 27.7855 -0.593002 22.49 2.21072 20.5644C5.01444 18.6388 -1.52758 15.2689 0.341572 10.9363Z" fill="#E7EAF3"/>
    <path fill-rule="evenodd" clip-rule="evenodd" d="M11.524 5.36622C11.3601 4.58045 11.2067 3.68843 11.1617 2.90856C11.129 2.34191 11.1589 1.90716 11.241 1.63207C11.2529 1.59246 11.2646 1.56021 11.2755 1.53418C11.3048 1.56364 11.3389 1.60088 11.3775 1.6475C11.5848 1.89796 11.8298 2.30423 12.0962 2.85585C12.3821 3.4477 12.6723 4.16367 12.9521 4.9475L12.5717 4.83153C12.2857 4.74433 11.9752 4.83537 11.7815 5.06322L11.524 5.36622ZM10.3196 6.78332C10.3004 6.74066 10.285 6.6956 10.2738 6.64842C10.0506 5.70652 9.73675 4.25181 9.66423 2.99497C9.62851 2.37581 9.64589 1.7315 9.80375 1.20287C9.96382 0.666829 10.342 0.0581459 11.1206 -0.0354684C11.4584 -0.0760855 11.7511 0.0371172 11.9697 0.174945C12.1857 0.311219 12.3727 0.497491 12.5329 0.691003C12.8535 1.07823 13.1601 1.60974 13.4469 2.20346C13.8885 3.11783 14.3252 4.26933 14.7191 5.48623L22.1816 7.76136C22.4232 7.83503 22.6115 8.02536 22.6826 8.26774L27.2562 23.8666C27.3728 24.2641 27.145 24.6808 26.7475 24.7974L10.6313 29.5227C10.2338 29.6392 9.81714 29.4115 9.7006 29.014L5.12697 13.4151C5.0559 13.1727 5.11162 12.9108 5.2752 12.7184L10.3196 6.78332ZM13.5243 6.69012L12.6055 6.40999L6.68024 13.3814L10.929 27.8722L25.6058 23.569L21.357 9.07814L15.2382 7.21263C15.64 8.65396 15.9679 10.1025 16.1589 11.3038C16.1893 11.4951 16.2165 11.6817 16.2401 11.8623C16.9635 12.2086 17.5425 12.8491 17.7859 13.6794C18.2407 15.2307 17.3519 16.8569 15.8006 17.3118C14.2493 17.7666 12.6231 16.8778 12.1682 15.3265C11.7134 13.7752 12.6022 12.1489 14.1535 11.6941C14.3305 11.6422 14.5084 11.6078 14.6855 11.5899C14.6829 11.5731 14.6802 11.5562 14.6775 11.5393C14.473 10.2527 14.096 8.6342 13.6321 7.05186C13.5966 6.93083 13.5607 6.8102 13.5243 6.69012ZM14.8414 13.082C14.7529 13.0906 14.664 13.1076 14.5755 13.1335C13.8192 13.3553 13.3859 14.1481 13.6076 14.9045C13.8294 15.6608 14.6223 16.0941 15.3786 15.8724C16.1349 15.6506 16.5682 14.8577 16.3465 14.1014C16.3284 14.0399 16.3066 13.9805 16.2813 13.9234C16.2477 14.0857 16.1891 14.2745 16.0771 14.445C16.0234 14.5409 15.9203 14.7083 15.7272 14.8752C15.5145 15.0591 15.233 15.2093 14.8612 15.3183C14.4637 15.4349 14.047 15.2071 13.9304 14.8097C13.8139 14.4122 14.0416 13.9955 14.4391 13.8789C14.6497 13.8172 14.7278 13.7563 14.7463 13.7403C14.7555 13.7324 14.7584 13.7283 14.7589 13.7276L14.759 13.7275L14.7591 13.7274C14.7609 13.7248 14.7633 13.7215 14.7795 13.6918C14.7878 13.6766 14.7966 13.6617 14.8059 13.6472C14.8093 13.6346 14.8144 13.6126 14.8198 13.579C14.8356 13.4805 14.8455 13.333 14.8423 13.1305C14.8421 13.1145 14.8418 13.0984 14.8414 13.082ZM13.8731 23.9153C13.7565 23.5178 13.9843 23.1012 14.3817 22.9846L20.3507 21.2345C20.7482 21.118 21.1649 21.3457 21.2814 21.7432C21.398 22.1407 21.1702 22.5574 20.7727 22.6739L14.8038 24.424C14.4063 24.5406 13.9896 24.3128 13.8731 23.9153ZM13.6317 20.4282C13.2343 20.5448 13.0065 20.9615 13.1231 21.3589C13.2396 21.7564 13.6563 21.9842 14.0538 21.8676L20.0227 20.1175C20.4202 20.001 20.648 19.5843 20.5314 19.1868C20.4149 18.7893 19.9982 18.5616 19.6007 18.6781L13.6317 20.4282Z" fill="#505573"/>
  </g>
  <defs>
    <clipPath id="clip0">
      <rect width="28" height="30" fill="white"/>
    </clipPath>
  </defs>
</svg>

<svg width="28" height="30" fill="none" xmlns="http://www.w3.org/2000/svg"><g clip-path="url(#clip0)"><path d="M.342 10.936c1.495-3.466 7.34-1.845 11.546-1.845 4.205 0 8.282 3.478 8.75 9.255.467 5.777-4.876 7.995-7.213 8.958-2.336.963-6.074.482-8.878.482-2.804 0-5.14-5.296-2.336-7.222C5.014 18.64-1.528 15.27.34 10.936z" fill="#E7EAF3"/><path fill-rule="evenodd" clip-rule="evenodd" d="M11.524 5.366c-.164-.786-.317-1.678-.362-2.457-.033-.567-.003-1.002.079-1.277a.997.997 0 0 1 .034-.098c.03.03.064.067.102.113.208.251.453.657.72 1.209.285.592.575 1.308.855 2.091l-.38-.115a.75.75 0 0 0-.79.231l-.258.303zM10.32 6.783a.751.751 0 0 1-.046-.135c-.223-.941-.537-2.396-.61-3.653-.035-.62-.018-1.264.14-1.792.16-.536.538-1.145 1.317-1.238.337-.041.63.072.849.21.216.136.403.322.563.516.32.387.627.919.914 1.512.442.915.878 2.066 1.272 3.283l7.463 2.275a.75.75 0 0 1 .5.507l4.574 15.599a.75.75 0 0 1-.509.93l-16.116 4.726a.75.75 0 0 1-.93-.509L5.127 13.415a.75.75 0 0 1 .148-.697l5.045-5.935zm3.204-.093l-.918-.28-5.926 6.971 4.249 14.491 14.677-4.303-4.249-14.49-6.119-1.866c.402 1.441.73 2.89.92 4.09.031.192.058.379.082.56a2.927 2.927 0 1 1-1.555-.272l-.008-.052c-.204-1.286-.581-2.905-1.045-4.487a41.887 41.887 0 0 0-.108-.362zm1.317 6.392a1.427 1.427 0 1 0 1.44.841 1.503 1.503 0 0 1-.204.522 1.57 1.57 0 0 1-.35.43c-.213.184-.494.334-.866.443a.75.75 0 0 1-.422-1.44c.21-.06.289-.122.307-.138l.013-.012.02-.036a.736.736 0 0 1 .027-.045.686.686 0 0 0 .014-.068 2.702 2.702 0 0 0 .021-.497zm-.968 10.833a.75.75 0 0 1 .509-.93l5.969-1.75a.75.75 0 1 1 .422 1.439l-5.97 1.75a.75.75 0 0 1-.93-.509zm-.241-3.487a.75.75 0 0 0 .422 1.44l5.969-1.75a.75.75 0 1 0-.422-1.44l-5.97 1.75z" fill="#505573"/></g><defs><clipPath id="clip0"><path fill="#fff" d="M0 0h28v30H0z"/></clipPath></defs></svg>
